src/lib/packages/icons/src/assets/filled/comment-times.svg

<svg width="24" height="24" viewBox="0 0 24 24" fill="none" xmlns="http://www.w3.org/2000/svg">
<path d="M21 12.001C21 12.342 20.98 12.667 20.947 12.985C20.918 13.215 20.7 13.293 20.574 13.252C19.819 13.004 18.9911 12.932 18.1311 13.074C15.7591 13.465 13.993 15.616 14 18.02C14.002 18.514 14.073 18.988 14.209 19.439C14.261 19.613 14.1641 19.797 13.9851 19.83C13.3461 19.946 12.68 20.004 11.999 20.004C10.719 20.004 9.50894 19.804 8.40894 19.424C7.06894 20.854 4.87898 21.044 3.45898 20.994C3.02898 20.984 2.83895 20.4341 3.16895 20.1541C4.25895 19.2741 4.79897 18.174 4.94897 17.213C3.72897 15.893 2.99902 14.123 2.99902 12.002C2.99902 7.00095 7.02902 4.00098 11.999 4.00098C16.969 4.00098 21 6.99998 21 12.001ZM20.061 18L21.531 16.53C21.824 16.237 21.824 15.762 21.531 15.469C21.238 15.176 20.763 15.176 20.47 15.469L19 16.939L17.53 15.469C17.237 15.176 16.762 15.176 16.469 15.469C16.176 15.762 16.176 16.237 16.469 16.53L17.939 18L16.469 19.47C16.176 19.763 16.176 20.238 16.469 20.531C16.615 20.677 16.807 20.751 16.999 20.751C17.191 20.751 17.3831 20.678 17.5291 20.531L18.999 19.061L20.469 20.531C20.615 20.677 20.807 20.751 20.999 20.751C21.191 20.751 21.3831 20.678 21.5291 20.531C21.8221 20.238 21.8221 19.763 21.5291 19.47L20.061 18Z" fill="currentColor"/>
</svg>

<svg xmlns="http://www.w3.org/2000/svg" width="24" height="24" fill="none"><path fill="currentColor" d="M21 12.001c0 .341-.02.666-.053.984a.303.303 0 0 1-.373.267 5.114 5.114 0 0 0-2.443-.178c-2.372.391-4.138 2.542-4.131 4.946.002.494.073.968.209 1.419.052.174-.045.358-.224.391-.639.116-1.305.174-1.986.174-1.28 0-2.49-.2-3.59-.58-1.34 1.43-3.53 1.62-4.95 1.57-.43-.01-.62-.56-.29-.84 1.09-.88 1.63-1.98 1.78-2.941-1.22-1.32-1.95-3.09-1.95-5.211 0-5.001 4.03-8.001 9-8.001S21 7 21 12.001ZM20.061 18l1.47-1.47a.75.75 0 1 0-1.061-1.061L19 16.939l-1.47-1.47a.75.75 0 1 0-1.061 1.061l1.47 1.47-1.47 1.47a.75.75 0 0 0 1.06 1.061l1.47-1.47 1.47 1.47a.748.748 0 0 0 1.06 0 .75.75 0 0 0 0-1.061L20.061 18Z"/></svg>
